!!!OTL: Abschied vom Liebchen (163), S. 357
!!!id: T0336
**kern
*clefG2
*k[b-]
*F:
{8c
=1
8f
8f
8f
8f
=2
8f
8a
8g
8f
=3
4g}
8r
=4
{8c
=5
8g
8g
8g
8g
=6
8g
8b-
8a
8g
=7
2a}
=8
{2cc
=9
8a
8a
8a
8a
=10
8a
8cc
8cc}
=11
{16b-
16a
=12
8cc
8g
8g
8g
=13
8b-
8dd
8cc
8b-}
=14
{8cc
8cc
8cc
8b-
=15
4a}
8r
==
*-
!!!minrhy: 16
!!!meters: 4/8 ]  ZZ[5
!!!cut: Abschied vom Liebchen (163), S. 357
!!!reg: Luxemburg
!!!trd: Singendes Volk, Esch-Alzette, 1937 posth.
!!!rhy1: X_  X_X_X_X_  X_X_X_X_  X__0   (x2)
!!!rhy2: X_  X_X_X_X_  X_X_X_X_  X___
!!!key: T0336  16  F 4/8 ]  ZZ[5
!!!mod: SECHSTONSKALA DUR ?]  AMBITUS[9
!!!kad: 23543
!!!akz: 11122_222333_553335_5245_553_
!!!fot: 'a__as'b__c__bv_
!!!for: 'a__av_b__aw_aw_
!!!fok: '/__/__V__S__\__
!! PHRAS[GEMISCHTTAKTIG]
!!!fkt: Abschieds- und Wanderlieder, Heimatlieder,  Liebeslied
!!!bem: Blascheid, hhh Nikolaus Perl, 1902
!! THILL, Mathias:
!! PR[9] 2K[6] 2G[6] 3K[6] 3G[4] 4A[13] 4Ü[0] 5A[0] 6K[0] 6G[0]
!! 7K[0] 7G[0] 8A[0] MEHR[0] SI[36] ABS[47] SR[13] SP[23]
!! ST[10] 2k[15] 2g[28] 3k[11] 3g[2] 4d[0] 4ü[0] 5d[0] 6k[0] 6g[0]
!! 7k[0] 7g[0] 8d[0] mehr[0] si[55] dm[-19] sr[43] sp[13]
!! 1F[34] 2F[32] 3F[28] 4F[0] LF[0] 2P[2] 3P[4] 4P[0] TRI[0] DF[5] AB[50]
!! TF[0] U3K[0] U3[0] U4[0] U4Ü[0] U5[0] U6K[0] U6[0] U7K[0] U7[0]
!! N1[4] N2K[0] N2[6] N3K[0] N3[21] N4[10] N4Ü[6] N5[35] N6K[0] N6[13]
!!!n7k: 0] N7[2] O1[2] O2K[0] O2[0] O3K[0] O3[0] HÖ[0
